X: 7271
T:J\"amtland tune (Soldiers Joy )
R:Schottische
O:Sweden
N:A wonderfully deviant version of Soldiers Joy 
M:4/4
A:J\"amtland
K:D
D>FFF D>FFF | D2d2 {e}dcd2 | \
D>FFF D>FFF | F2E2 E4 |\
D>FFF D>FFF | D2d2 d2cd |
c>def g2ec | e2d2 d4::\
f2d2 f2a2 | egec e2g2 | fafd egec | d2AG F2D2-|
M:2/4
D4g4|\
M:4/4
f2d2f2a2 | egec e2g2 | fafd egec | d2d2d4 :|
